dist/icons/svgs/flag-checkered-outline.svg

<svg xmlns="http://www.w3.org/2000/svg" width="24" height="24" fill="currentcolor" class="icon-flag-checkered-outline" viewBox="0 0 24 24">
  <path d="M4.1875 2C4.69531 2 5.125 2.42969 5.125 2.9375V4.03125L8.44531 3.21094C9.92969 2.85938 11.4922 3.01562 12.8594 3.71875C14.6562 4.61719 16.8047 4.61719 18.6016 3.71875L18.9922 3.52344C19.7734 3.13281 20.75 3.71875 20.75 4.61719V15.5156C20.75 16.0625 20.3984 16.5312 19.9297 16.6875L18.5625 17.1953C16.7656 17.8984 14.7344 17.7812 13.0156 16.9219C11.5312 16.1797 9.85156 15.9844 8.25 16.375L5.125 17.1562V21.0625C5.125 21.6094 4.69531 22 4.1875 22C3.64062 22 3.25 21.6094 3.25 21.0625V17.625V15.7109V4.5V2.9375C3.25 2.42969 3.64062 2 4.1875 2ZM5.125 7.89844L8.25 7.23438V5.20312L5.125 5.98438V7.89844ZM5.125 9.8125V11.6484L8.25 10.9844V9.14844L5.125 9.8125ZM5.125 13.5625V15.2422L7.78125 14.5781C7.9375 14.5391 8.09375 14.5 8.25 14.4609V12.8984L5.125 13.5625ZM10.125 14.3047C11.4141 14.3438 12.6641 14.6562 13.875 15.2422V13.2891L11.6875 12.6641C11.1797 12.5078 10.6328 12.4688 10.125 12.5078V14.3047ZM15.75 15.75C16.4531 15.8281 17.1953 15.7109 17.8984 15.4375L18.875 15.0859V13.25L17.8594 13.4844C17.1562 13.6797 16.4531 13.7188 15.75 13.6797V15.75ZM18.875 11.3359V9.5L17.8594 9.73438C17.1562 9.92969 16.4531 9.96875 15.75 9.92969V11.8047C16.2969 11.8438 16.8828 11.8047 17.4297 11.6875L18.875 11.3359ZM18.875 7.58594V5.63281C17.8594 6.0625 16.8047 6.25781 15.75 6.25781V8.01562C16.2969 8.09375 16.8828 8.05469 17.4297 7.9375L18.875 7.58594ZM13.875 6.0625C13.2109 5.90625 12.625 5.67188 12.0391 5.39844C11.4141 5.08594 10.75 4.92969 10.125 4.89062V6.88281C10.8281 6.84375 11.5312 6.92188 12.2344 7.11719L13.875 7.58594V6.0625ZM13.875 9.53906L11.6875 8.91406C11.1797 8.75781 10.6328 8.71875 10.125 8.75781V10.6328C10.8281 10.5938 11.5312 10.6719 12.2344 10.8672L13.875 11.3359V9.53906Z"/>
</svg>

<svg xmlns="http://www.w3.org/2000/svg" width="24" height="24" fill="currentColor" class="icon-flag-checkered-outline" viewBox="0 0 24 24">
  <path d="M4.188 2a.95.95 0 0 1 .937.938V4.03l3.32-.82c1.485-.352 3.047-.195 4.414.508a6.45 6.45 0 0 0 5.743 0l.39-.196c.781-.39 1.758.196 1.758 1.094v10.899c0 .547-.352 1.015-.82 1.172l-1.367.507c-1.797.703-3.829.586-5.547-.273a6.95 6.95 0 0 0-4.766-.547l-3.125.781v3.907c0 .546-.43.937-.937.937-.547 0-.938-.39-.938-.937V2.937c0-.508.39-.938.938-.938m.937 5.898 3.125-.664v-2.03l-3.125.78zm0 1.915v1.835l3.125-.664V9.148zm0 3.75v1.68l2.656-.665.469-.117v-1.563zm5 .742q1.935.058 3.75.937V13.29l-2.187-.625a4.3 4.3 0 0 0-1.563-.156zm5.625 1.445c.703.078 1.445-.04 2.148-.312l.977-.352V13.25l-1.016.234c-.703.196-1.406.235-2.109.196zm3.125-4.414V9.5l-1.016.234c-.703.196-1.406.235-2.109.196v1.875c.547.039 1.133 0 1.68-.117zm0-3.75V5.633a8 8 0 0 1-3.125.625v1.758a4.9 4.9 0 0 0 1.68-.079zm-5-1.524c-.664-.156-1.25-.39-1.836-.664a5 5 0 0 0-1.914-.507v1.992a6.5 6.5 0 0 1 2.11.234l1.64.469zm0 3.477-2.187-.625a4.3 4.3 0 0 0-1.563-.156v1.875a6.5 6.5 0 0 1 2.11.234l1.64.469z"/>
</svg>
